X: 691
T: Ag Filleadh Abhaile
R: reel
M: 4/4
K: Cmajor
|:D2ED ADGE|DECD EDEG|AcBd cAGE|DGEC DCA,C|
D2ED ADGE|(3DED CD EDEG|AcBd cAGE|1 DGEC D2 (3A,B,C:|2 DGEC D2 (3ABc||
d2ed dcAG|E3G DCA,C|D2ED ADGD|EGAB cdec|
dgec dcAG|E3G DCA,C|D2ED ADGE|(3DED CE DEFG|
AddA d3A|c3d cAGE|D2ED ADGD|EGAB cdec|
dgec dcAG|E3G DCA,C|D2ED ADGE|(3DED CE DCA,C||

